img/Technology-icon-dark.svg

<svg width="88" height="88" viewBox="0 0 88 88" fill="none" xmlns="http://www.w3.org/2000/svg">
<circle cx="44" cy="44" r="44" fill="#0F0F0F"/>
<path d="M42 59V49L37 43.5" stroke="#FF1515" stroke-width="2" stroke-linecap="round" stroke-linejoin="round"/>
<path d="M42.5 43.5V38.5L39.5 35.5" stroke="#FF1515" stroke-width="2" stroke-linecap="round" stroke-linejoin="round"/>
<path d="M46.5 55.5V47.5L51.5 42.5" stroke="#FF1515" stroke-width="2" stroke-linecap="round" stroke-linejoin="round"/>
<circle cx="53.5" cy="40.5" r="2.5" stroke="#FF1515" stroke-width="2"/>
<circle cx="46.5" cy="30.5" r="2.5" stroke="#FF1515" stroke-width="2"/>
<circle cx="37.5" cy="33.5" r="2.5" stroke="#FF1515" stroke-width="2"/>
<circle cx="34.9997" cy="41.9999" r="2" transform="rotate(5.77687 34.9997 41.9999)" stroke="#FF1515" stroke-width="2"/>
<path d="M43.5 23C34.3873 23 27 30.3873 27 39.5C27 47.5 31.6955 50.1351 35 55C37.9334 59.3185 34.2148 63 38.5 63H43.5H44H49C53.2852 63 49.5666 59.3185 52.5 55C55.8045 50.1351 60.5 47.5 60.5 39.5C60.5 30.3873 53.1127 23 44 23H43.5Z" stroke="#FF1515" stroke-width="2"/>
<path d="M14 39.5H22" stroke="#FF1515" stroke-width="2" stroke-linecap="round" stroke-linejoin="round"/>
<path d="M65 39.5H73" stroke="#FF1515" stroke-width="2" stroke-linecap="round" stroke-linejoin="round"/>
<path d="M22.6406 60.3599L28.2975 54.703" stroke="#FF1515" stroke-width="2" stroke-linecap="round" stroke-linejoin="round"/>
<path d="M58.7031 24.2974L64.36 18.6405" stroke="#FF1515" stroke-width="2" stroke-linecap="round" stroke-linejoin="round"/>
<path d="M64.3594 60.3599L58.7025 54.703" stroke="#FF1515" stroke-width="2" stroke-linecap="round" stroke-linejoin="round"/>
<path d="M28.2969 24.2974L22.64 18.6405" stroke="#FF1515" stroke-width="2" stroke-linecap="round" stroke-linejoin="round"/>
<path d="M43.5 18L43.5 10" stroke="#FF1515" stroke-width="2" stroke-linecap="round" stroke-linejoin="round"/>
<path d="M37.0002 68.4982L50.0854 66.4914" stroke="#FF1515" stroke-width="2" stroke-linecap="round" stroke-linejoin="round"/>
<path d="M37.0002 72.4982L50.0854 70.4914" stroke="#FF1515" stroke-width="2" stroke-linecap="round" stroke-linejoin="round"/>
<path d="M43.5 79C45.0344 79 46.3382 78.1536 46.8107 76.9759C47.0163 76.4633 46.5523 76 46 76H41C40.4477 76 39.9837 76.4633 40.1893 76.9759C40.6618 78.1536 41.9656 79 43.5 79Z" stroke="#FF1515" stroke-width="2"/>
<path d="M46.5 42.5V33" stroke="#FF1515" stroke-width="2" stroke-linecap="round" stroke-linejoin="round"/>
</svg>

<?xml version="1.0" encoding="UTF-8"?>
<svg id="Layer_1" xmlns="http://www.w3.org/2000/svg" version="1.1" viewBox="0 0 88 88">
  <!-- Generator: Adobe Illustrator 29.5.1, SVG Export Plug-In . SVG Version: 2.1.0 Build 141)  -->
  <defs>
    <style>
      .st0 {
        fill: #121212;
      }

      .st1, .st2 {
        stroke-width: 2px;
      }

      .st1, .st2, .st3 {
        fill: none;
        stroke: #ff1515;
      }

      .st2 {
        stroke-linecap: round;
        stroke-linejoin: round;
      }

      .st3 {
        stroke-miterlimit: 4;
        stroke-width: 2px;
      }
    </style>
  </defs>
  <circle class="st0" cx="44" cy="44" r="44"/>
  <path class="st2" d="M42,59v-10l-5-5.5"/>
  <path class="st2" d="M42.5,43.5v-5l-3-3"/>
  <path class="st2" d="M46.5,55.5v-8l5-5"/>
  <circle class="st1" cx="53.5" cy="40.5" r="2.5"/>
  <circle class="st1" cx="46.5" cy="30.5" r="2.5"/>
  <circle class="st1" cx="37.5" cy="33.5" r="2.5"/>
  <circle class="st3" cx="35" cy="42" r="2"/>
  <path class="st1" d="M43.5,23c-9.11,0-16.5,7.39-16.5,16.5,0,8,4.7,10.64,8,15.5,2.93,4.32-.79,8,3.5,8h10.5c4.29,0,.57-3.68,3.5-8,3.3-4.86,8-7.5,8-15.5,0-9.11-7.39-16.5-16.5-16.5h-.5Z"/>
  <path class="st2" d="M14,39.5h8"/>
  <path class="st2" d="M65,39.5h8"/>
  <path class="st2" d="M22.64,60.36l5.66-5.66"/>
  <path class="st2" d="M58.7,24.3l5.66-5.66"/>
  <path class="st2" d="M64.36,60.36l-5.66-5.66"/>
  <path class="st2" d="M28.3,24.3l-5.66-5.66"/>
  <path class="st2" d="M43.5,18v-8"/>
  <path class="st2" d="M37,68.5l13.09-2.01"/>
  <path class="st2" d="M37,72.5l13.09-2.01"/>
  <path class="st1" d="M43.5,79c1.53,0,2.84-.85,3.31-2.02.21-.51-.26-.98-.81-.98h-5c-.55,0-1.02.46-.81.98.47,1.18,1.78,2.02,3.31,2.02Z"/>
  <path class="st2" d="M46.5,42.5v-9.5"/>
</svg>
